X:1063
T:Shelder Geo
T:Sheldor Geo
R:reel
O:Shetland
Z:id:hn-reel-1063
M:C|
L:1/8
K:Dmix
A2AG EGAB | c2cA cGGc | A2AG EGAG |1 Add^c d2d=c :|2 Add^c d2de ||
cdeg gag2 | ecgc ecgc | cdeg a2g2 | fdad fdad |
cdeg gag2 | ecgc ecce | afge fde^c | Add^c d2d=c ||

